src/assets/images/contact-btn.svg

<svg width="143" height="44" viewBox="0 0 143 44" fill="none" xmlns="http://www.w3.org/2000/svg">
<g filter="url(#filter0_d_15_122)">
<path d="M0.287568 11.783C0.605316 5.64815 5.6556 0.89619 11.7975 0.773071C26.5158 0.478027 52.9874 0 70 0C87.0986 0 114.235 0.482877 129.203 0.777534C135.347 0.898493 140.395 5.65126 140.713 11.7884C140.875 14.9161 141 18.2313 141 21C141 23.7687 140.875 27.0839 140.713 30.2116C140.395 36.3487 135.347 41.1015 129.203 41.2225C114.235 41.5171 87.0986 42 70 42C52.9874 42 26.5158 41.522 11.7975 41.2269C5.6556 41.1038 0.605316 36.3519 0.287568 30.217C0.125493 27.0877 0 23.7703 0 21C0 18.2297 0.125493 14.9123 0.287568 11.783Z" fill="url(#paint0_linear_15_122)"/>
<g filter="url(#filter1_d_15_122)">
<path d="M22.704 26.304C21.648 26.304 20.7413 26.1173 19.984 25.744C19.2267 25.3707 18.608 24.8853 18.128 24.288C17.6587 23.6907 17.312 23.04 17.088 22.336C16.864 21.632 16.752 20.9547 16.752 20.304V19.952C16.752 19.2267 16.864 18.512 17.088 17.808C17.3227 17.104 17.68 16.464 18.16 15.888C18.64 15.312 19.248 14.8533 19.984 14.512C20.7307 14.16 21.6107 13.984 22.624 13.984C23.68 13.984 24.5973 14.176 25.376 14.56C26.1653 14.9333 26.7947 15.4667 27.264 16.16C27.7333 16.8427 28.016 17.6427 28.112 18.56H25.824C25.7387 18.0267 25.5467 17.5787 25.248 17.216C24.96 16.8427 24.592 16.5653 24.144 16.384C23.696 16.192 23.1893 16.096 22.624 16.096C22.048 16.096 21.536 16.1973 21.088 16.4C20.64 16.592 20.2667 16.8693 19.968 17.232C19.6693 17.5947 19.44 18.0213 19.28 18.512C19.1307 19.0027 19.056 19.5467 19.056 20.144C19.056 20.72 19.1307 21.2533 19.28 21.744C19.44 22.2347 19.6747 22.6667 19.984 23.04C20.2933 23.4027 20.672 23.6853 21.12 23.888C21.5787 24.0907 22.1067 24.192 22.704 24.192C23.5787 24.192 24.3147 23.9787 24.912 23.552C25.52 23.1147 25.888 22.5067 26.016 21.728H28.304C28.1973 22.56 27.9147 23.3227 27.456 24.016C26.9973 24.7093 26.368 25.264 25.568 25.68C24.768 26.096 23.8133 26.304 22.704 26.304ZM33.9013 26.304C33.1333 26.304 32.4559 26.1813 31.8693 25.936C31.2826 25.6907 30.7866 25.36 30.3813 24.944C29.9759 24.5173 29.6666 24.0373 29.4533 23.504C29.2506 22.9707 29.1493 22.416 29.1493 21.84V21.504C29.1493 20.9067 29.2559 20.3413 29.4693 19.808C29.6933 19.264 30.0079 18.784 30.4133 18.368C30.8293 17.9413 31.3306 17.6107 31.9173 17.376C32.5039 17.1307 33.1653 17.008 33.9013 17.008C34.6373 17.008 35.2986 17.1307 35.8853 17.376C36.4719 17.6107 36.9679 17.9413 37.3733 18.368C37.7893 18.784 38.1039 19.264 38.3173 19.808C38.5306 20.3413 38.6373 20.9067 38.6373 21.504V21.84C38.6373 22.416 38.5306 22.9707 38.3173 23.504C38.1146 24.0373 37.8106 24.5173 37.4053 24.944C36.9999 25.36 36.5039 25.6907 35.9173 25.936C35.3306 26.1813 34.6586 26.304 33.9013 26.304ZM33.9013 24.4C34.4453 24.4 34.9039 24.2827 35.2773 24.048C35.6506 23.8027 35.9333 23.4773 36.1253 23.072C36.3173 22.656 36.4133 22.1867 36.4133 21.664C36.4133 21.1307 36.3119 20.6613 36.1093 20.256C35.9173 19.84 35.6293 19.5147 35.2453 19.28C34.8719 19.0347 34.4239 18.912 33.9013 18.912C33.3786 18.912 32.9253 19.0347 32.5413 19.28C32.1679 19.5147 31.8799 19.84 31.6773 20.256C31.4746 20.6613 31.3733 21.1307 31.3733 21.664C31.3733 22.1867 31.4693 22.656 31.6613 23.072C31.8639 23.4773 32.1519 23.8027 32.5253 24.048C32.8986 24.2827 33.3573 24.4 33.9013 24.4ZM40.2646 26V17.312H42.0246V21.04H41.8646C41.8646 20.1547 41.982 19.4187 42.2166 18.832C42.4513 18.2347 42.798 17.7867 43.2566 17.488C43.726 17.1893 44.3073 17.04 45.0006 17.04H45.0966C46.1313 17.04 46.9153 17.376 47.4486 18.048C47.982 18.7093 48.2486 19.7013 48.2486 21.024V26H46.0246V20.832C46.0246 20.2987 45.87 19.8667 45.5606 19.536C45.262 19.2053 44.846 19.04 44.3126 19.04C43.7686 19.04 43.326 19.2107 42.9846 19.552C42.654 19.8827 42.4886 20.3307 42.4886 20.896V26H40.2646ZM54.0956 26.112C53.2956 26.112 52.6343 26.0107 52.1116 25.808C51.5996 25.5947 51.2156 25.2427 50.9596 24.752C50.7036 24.2507 50.5756 23.5787 50.5756 22.736L50.5916 14.864H52.6716L52.6556 22.88C52.6556 23.3067 52.7676 23.6373 52.9916 23.872C53.2263 24.096 53.557 24.208 53.9836 24.208H55.3436V26.112H54.0956ZM49.1996 18.944V17.312H55.3436V18.944H49.1996ZM62.123 26V23.424H61.755V20.56C61.755 20.0587 61.6323 19.6853 61.387 19.44C61.1417 19.1947 60.763 19.072 60.251 19.072C59.9843 19.072 59.6643 19.0773 59.291 19.088C58.9177 19.0987 58.539 19.1147 58.155 19.136C57.7817 19.1467 57.4457 19.1627 57.147 19.184V17.296C57.3923 17.2747 57.6697 17.2533 57.979 17.232C58.2883 17.2107 58.603 17.2 58.923 17.2C59.2537 17.1893 59.563 17.184 59.851 17.184C60.747 17.184 61.4883 17.3013 62.075 17.536C62.6723 17.7707 63.1203 18.1387 63.419 18.64C63.7283 19.1413 63.883 19.7973 63.883 20.608V26H62.123ZM59.323 26.224C58.6937 26.224 58.139 26.112 57.659 25.888C57.1897 25.664 56.8217 25.344 56.555 24.928C56.299 24.512 56.171 24.0107 56.171 23.424C56.171 22.784 56.3257 22.2613 56.635 21.856C56.955 21.4507 57.3977 21.1467 57.963 20.944C58.539 20.7413 59.211 20.64 59.979 20.64H61.995V21.968H59.947C59.435 21.968 59.0403 22.096 58.763 22.352C58.4963 22.5973 58.363 22.9173 58.363 23.312C58.363 23.7067 58.4963 24.0267 58.763 24.272C59.0403 24.5173 59.435 24.64 59.947 24.64C60.2563 24.64 60.539 24.5867 60.795 24.48C61.0617 24.3627 61.2803 24.1707 61.451 23.904C61.6323 23.6267 61.7337 23.2533 61.755 22.784L62.299 23.408C62.2457 24.016 62.0963 24.528 61.851 24.944C61.6163 25.36 61.2857 25.68 60.859 25.904C60.443 26.1173 59.931 26.224 59.323 26.224ZM69.8013 26.304C69.0439 26.304 68.3879 26.176 67.8333 25.92C67.2893 25.664 66.8306 25.3227 66.4573 24.896C66.0946 24.4693 65.8226 23.9893 65.6413 23.456C65.4599 22.9227 65.3693 22.3787 65.3693 21.824V21.52C65.3693 20.9333 65.4599 20.3733 65.6413 19.84C65.8333 19.296 66.1159 18.816 66.4893 18.4C66.8626 17.9733 67.3213 17.6373 67.8653 17.392C68.4199 17.136 69.0599 17.008 69.7853 17.008C70.5426 17.008 71.2199 17.1573 71.8173 17.456C72.4146 17.744 72.8893 18.1493 73.2413 18.672C73.6039 19.1947 73.8066 19.8027 73.8493 20.496H71.6893C71.6359 20.048 71.4439 19.6747 71.1133 19.376C70.7933 19.0773 70.3506 18.928 69.7853 18.928C69.2946 18.928 68.8839 19.0453 68.5533 19.28C68.2333 19.5147 67.9933 19.84 67.8333 20.256C67.6733 20.6613 67.5933 21.1307 67.5933 21.664C67.5933 22.176 67.6679 22.64 67.8173 23.056C67.9773 23.472 68.2173 23.7973 68.5373 24.032C68.8679 24.2667 69.2893 24.384 69.8013 24.384C70.1853 24.384 70.5159 24.3147 70.7933 24.176C71.0706 24.0373 71.2893 23.8453 71.4493 23.6C71.6199 23.3547 71.7266 23.0773 71.7693 22.768H73.9293C73.8866 23.472 73.6786 24.0907 73.3053 24.624C72.9426 25.1467 72.4573 25.5573 71.8493 25.856C71.2519 26.1547 70.5693 26.304 69.8013 26.304ZM79.1669 26.112C78.3669 26.112 77.7055 26.0107 77.1829 25.808C76.6709 25.5947 76.2869 25.2427 76.0309 24.752C75.7749 24.2507 75.6469 23.5787 75.6469 22.736L75.6629 14.864H77.7429L77.7269 22.88C77.7269 23.3067 77.8389 23.6373 78.0629 23.872C78.2975 24.096 78.6282 24.208 79.0549 24.208H80.4149V26.112H79.1669ZM74.2709 18.944V17.312H80.4149V18.944H74.2709ZM90.0866 26.304C88.9986 26.304 88.0813 26.096 87.3346 25.68C86.588 25.264 86.0173 24.6827 85.6226 23.936C85.2386 23.1787 85.0466 22.2933 85.0466 21.28V14.32H87.3186V21.408C87.3186 21.9627 87.4253 22.4533 87.6386 22.88C87.852 23.296 88.1613 23.6213 88.5666 23.856C88.9826 24.08 89.4893 24.192 90.0866 24.192C90.6733 24.192 91.1693 24.08 91.5746 23.856C91.9906 23.6213 92.3 23.296 92.5026 22.88C92.716 22.464 92.8226 21.9733 92.8226 21.408V14.32H95.0946V21.28C95.0946 22.2933 94.9026 23.1787 94.5186 23.936C94.1453 24.6827 93.5853 25.264 92.8386 25.68C92.092 26.096 91.1746 26.304 90.0866 26.304ZM100.411 26.272C99.2163 26.272 98.2777 26.0213 97.595 25.52C96.923 25.008 96.571 24.304 96.539 23.408H98.539C98.571 23.7067 98.7363 23.9787 99.035 24.224C99.3337 24.4693 99.803 24.592 100.443 24.592C100.976 24.592 101.398 24.496 101.707 24.304C102.027 24.112 102.187 23.8507 102.187 23.52C102.187 23.232 102.064 23.0027 101.819 22.832C101.584 22.6613 101.179 22.5493 100.603 22.496L99.835 22.416C98.8643 22.3093 98.1177 22.032 97.595 21.584C97.0723 21.136 96.811 20.5387 96.811 19.792C96.811 19.1947 96.9603 18.6933 97.259 18.288C97.5577 17.8827 97.9683 17.5787 98.491 17.376C99.0243 17.1627 99.6323 17.056 100.315 17.056C101.382 17.056 102.246 17.2907 102.907 17.76C103.568 18.2293 103.915 18.9173 103.947 19.824H101.947C101.926 19.5253 101.776 19.2693 101.499 19.056C101.222 18.8427 100.822 18.736 100.299 18.736C99.8297 18.736 99.467 18.8267 99.211 19.008C98.955 19.1893 98.827 19.424 98.827 19.712C98.827 19.9893 98.9283 20.2027 99.131 20.352C99.3443 20.5013 99.6857 20.6027 100.155 20.656L100.923 20.736C101.947 20.8427 102.747 21.1253 103.323 21.584C103.91 22.0427 104.203 22.6613 104.203 23.44C104.203 24.016 104.043 24.5173 103.723 24.944C103.414 25.36 102.976 25.6853 102.411 25.92C101.846 26.1547 101.179 26.272 100.411 26.272Z" fill="white"/>
<path d="M108 26L118 16M118 16H110M118 16V24" stroke="white" stroke-width="2" stroke-linecap="round" stroke-linejoin="round"/>
</g>
</g>
<defs>
<filter id="filter0_d_15_122" x="0" y="0" width="143" height="44" filterUnits="userSpaceOnUse" color-interpolation-filters="sRGB">
<feFlood flood-opacity="0" result="BackgroundImageFix"/>
<feColorMatrix in="SourceAlpha" type="matrix" values="0 0 0 0 0 0 0 0 0 0 0 0 0 0 0 0 0 0 127 0" result="hardAlpha"/>
<feOffset dx="2" dy="2"/>
<feComposite in2="hardAlpha" operator="out"/>
<feColorMatrix type="matrix" values="0 0 0 0 0 0 0 0 0 0 0 0 0 0 0 0 0 0 0.06 0"/>
<feBlend mode="normal" in2="BackgroundImageFix" result="effect1_dropShadow_15_122"/>
<feBlend mode="normal" in="SourceGraphic" in2="effect1_dropShadow_15_122" result="shape"/>
</filter>
<filter id="filter1_d_15_122" x="16" y="9" width="111" height="26" filterUnits="userSpaceOnUse" color-interpolation-filters="sRGB">
<feFlood flood-opacity="0" result="BackgroundImageFix"/>
<feColorMatrix in="SourceAlpha" type="matrix" values="0 0 0 0 0 0 0 0 0 0 0 0 0 0 0 0 0 0 127 0" result="hardAlpha"/>
<feOffset dx="2" dy="2"/>
<feComposite in2="hardAlpha" operator="out"/>
<feColorMatrix type="matrix" values="0 0 0 0 0 0 0 0 0 0 0 0 0 0 0 0 0 0 0.06 0"/>
<feBlend mode="normal" in2="BackgroundImageFix" result="effect1_dropShadow_15_122"/>
<feBlend mode="normal" in="SourceGraphic" in2="effect1_dropShadow_15_122" result="shape"/>
</filter>
<linearGradient id="paint0_linear_15_122" x1="1" y1="0.999987" x2="149" y2="47.5" gradientUnits="userSpaceOnUse">
<stop stop-color="#E65C00"/>
<stop offset="1" stop-color="#FF8C42"/>
</linearGradient>
</defs>
</svg>

<svg xmlns="http://www.w3.org/2000/svg" width="143" height="44" fill="none" viewBox="0 0 143 44"><g filter="url(#a)"><path fill="url(#b)" d="M.288 11.783C.605 5.648 5.656.896 11.798.773 26.516.478 52.988 0 70 0c17.099 0 44.235.483 59.203.778 6.144.12 11.192 4.873 11.51 11.01.162 3.128.287 6.443.287 9.212s-.125 6.084-.287 9.212c-.318 6.137-5.366 10.89-11.51 11.01C114.235 41.518 87.099 42 70 42c-17.013 0-43.484-.478-58.202-.773C5.655 41.104.604 36.352.287 30.217.125 27.087 0 23.77 0 21s.125-6.088.288-9.217"/><g filter="url(#c)"><path fill="#fff" d="M22.704 26.304q-1.584 0-2.72-.56t-1.856-1.456a6.2 6.2 0 0 1-1.04-1.952 6.7 6.7 0 0 1-.336-2.032v-.352q0-1.088.336-2.144a5.9 5.9 0 0 1 1.072-1.92 5.16 5.16 0 0 1 1.824-1.376q1.12-.528 2.64-.528 1.584 0 2.752.576a4.6 4.6 0 0 1 1.888 1.6q.705 1.024.848 2.4h-2.288q-.128-.8-.576-1.344a2.6 2.6 0 0 0-1.104-.832 3.8 3.8 0 0 0-1.52-.288q-.864 0-1.536.304-.672.288-1.12.832-.448.545-.688 1.28a5.6 5.6 0 0 0-.224 1.632q0 .864.224 1.6.24.736.704 1.296.465.544 1.136.848.688.304 1.584.304 1.312 0 2.208-.64.912-.656 1.104-1.824h2.288a5.3 5.3 0 0 1-.848 2.288q-.688 1.04-1.888 1.664t-2.864.624m11.197 0q-1.152 0-2.032-.368a4.4 4.4 0 0 1-1.488-.992 4.5 4.5 0 0 1-.928-1.44 4.6 4.6 0 0 1-.304-1.664v-.336q0-.896.32-1.696a4.5 4.5 0 0 1 .944-1.44 4.3 4.3 0 0 1 1.504-.992q.88-.368 1.984-.368t1.984.368a4.1 4.1 0 0 1 1.488.992q.623.624.944 1.44.32.8.32 1.696v.336a4.4 4.4 0 0 1-.32 1.664 4.3 4.3 0 0 1-.912 1.44 4.4 4.4 0 0 1-1.488.992q-.879.368-2.016.368m0-1.904q.816 0 1.376-.352a2.35 2.35 0 0 0 .848-.976q.288-.624.288-1.408 0-.8-.304-1.408a2.2 2.2 0 0 0-.864-.976q-.56-.368-1.344-.368-.783 0-1.36.368a2.33 2.33 0 0 0-.864.976q-.304.608-.304 1.408 0 .784.288 1.408.304.607.864.976.56.352 1.376.352m6.364 1.6v-8.688h1.76v3.728h-.16q0-1.328.352-2.208.351-.896 1.04-1.344.703-.448 1.744-.448h.096q1.551 0 2.352 1.008.8.991.8 2.976V26h-2.224v-5.168q0-.8-.464-1.296-.448-.495-1.248-.496-.816 0-1.328.512-.496.496-.496 1.344V26zm13.83.112q-1.2 0-1.983-.304a2.23 2.23 0 0 1-1.152-1.056q-.384-.752-.384-2.016l.016-7.872h2.08l-.016 8.016q0 .64.336.992.351.336.992.336h1.36v1.904zM49.2 18.944v-1.632h6.144v1.632zM62.123 26v-2.576h-.368V20.56q0-.752-.368-1.12t-1.136-.368q-.4 0-.96.016t-1.136.048q-.56.016-1.008.048v-1.888q.368-.032.832-.064.465-.032.944-.032.496-.015.928-.016 1.344 0 2.224.352.895.352 1.344 1.104.465.752.464 1.968V26zm-2.8.224q-.944 0-1.664-.336a2.6 2.6 0 0 1-1.104-.96q-.384-.624-.384-1.504 0-.96.464-1.568.48-.608 1.328-.912.864-.304 2.016-.304h2.016v1.328h-2.048q-.768 0-1.184.384-.4.367-.4.96t.4.96q.416.368 1.184.368.465 0 .848-.16.4-.176.656-.576.272-.415.304-1.12l.544.624q-.08.912-.448 1.536a2.4 2.4 0 0 1-.992.96q-.624.32-1.536.32m10.478.08q-1.136 0-1.968-.384a4.15 4.15 0 0 1-1.376-1.024 4.4 4.4 0 0 1-.816-1.44 5 5 0 0 1-.272-1.632v-.304q0-.88.272-1.68a4.3 4.3 0 0 1 .848-1.44 4 4 0 0 1 1.376-1.008q.833-.384 1.92-.384 1.137 0 2.032.448a3.5 3.5 0 0 1 1.424 1.216q.545.784.608 1.824h-2.16a1.74 1.74 0 0 0-.576-1.12q-.48-.448-1.328-.448-.735 0-1.232.352-.48.352-.72.976-.24.608-.24 1.408 0 .768.224 1.392.24.624.72.976.495.352 1.264.352.576 0 .992-.208t.656-.576q.256-.368.32-.832h2.16q-.063 1.056-.624 1.856a3.74 3.74 0 0 1-1.456 1.232q-.896.448-2.048.448m9.366-.192q-1.2 0-1.984-.304a2.23 2.23 0 0 1-1.152-1.056q-.384-.752-.384-2.016l.016-7.872h2.08l-.016 8.016q0 .64.336.992.351.336.992.336h1.36v1.904zm-4.896-7.168v-1.632h6.144v1.632zm15.816 7.36q-1.632 0-2.752-.624a4.2 4.2 0 0 1-1.712-1.744q-.576-1.136-.576-2.656v-6.96h2.272v7.088q0 .832.32 1.472.32.624.928.976.623.336 1.52.336.879 0 1.488-.336.624-.352.928-.976.32-.624.32-1.472V14.32h2.272v6.96q0 1.52-.576 2.656a4 4 0 0 1-1.68 1.744q-1.12.624-2.752.624m10.324-.032q-1.792 0-2.816-.752-1.008-.768-1.056-2.112h2q.048.448.496.816t1.408.368q.8 0 1.264-.288.48-.288.48-.784a.8.8 0 0 0-.368-.688q-.352-.256-1.216-.336l-.768-.08q-1.455-.16-2.24-.832-.784-.672-.784-1.792 0-.896.448-1.504.449-.608 1.232-.912.8-.32 1.824-.32 1.6 0 2.592.704t1.04 2.064h-2q-.032-.448-.448-.768t-1.2-.32q-.704 0-1.088.272t-.384.704q0 .415.304.64.32.224 1.024.304l.768.08q1.536.16 2.4.848.88.688.88 1.856 0 .864-.48 1.504-.464.624-1.312.976t-2 .352"/><path stroke="#fff" stroke-linecap="round" stroke-linejoin="round" stroke-width="2" d="m108 26 10-10m0 0h-8m8 0v8"/></g></g><defs><filter id="a" width="143" height="44" x="0" y="0" color-interpolation-filters="sRGB" filterUnits="userSpaceOnUse"><feFlood flood-opacity="0" result="BackgroundImageFix"/><feColorMatrix in="SourceAlpha" result="hardAlpha" values="0 0 0 0 0 0 0 0 0 0 0 0 0 0 0 0 0 0 127 0"/><feOffset dx="2" dy="2"/><feComposite in2="hardAlpha" operator="out"/><feColorMatrix values="0 0 0 0 0 0 0 0 0 0 0 0 0 0 0 0 0 0 0.06 0"/><feBlend in2="BackgroundImageFix" result="effect1_dropShadow_15_122"/><feBlend in="SourceGraphic" in2="effect1_dropShadow_15_122" result="shape"/></filter><filter id="c" width="111" height="26" x="16" y="9" color-interpolation-filters="sRGB" filterUnits="userSpaceOnUse"><feFlood flood-opacity="0" result="BackgroundImageFix"/><feColorMatrix in="SourceAlpha" result="hardAlpha" values="0 0 0 0 0 0 0 0 0 0 0 0 0 0 0 0 0 0 127 0"/><feOffset dx="2" dy="2"/><feComposite in2="hardAlpha" operator="out"/><feColorMatrix values="0 0 0 0 0 0 0 0 0 0 0 0 0 0 0 0 0 0 0.06 0"/><feBlend in2="BackgroundImageFix" result="effect1_dropShadow_15_122"/><feBlend in="SourceGraphic" in2="effect1_dropShadow_15_122" result="shape"/></filter><linearGradient id="b" x1="1" x2="149" y1="1" y2="47.5" gradientUnits="userSpaceOnUse"><stop stop-color="#e65c00"/><stop offset="1" stop-color="#ff8c42"/></linearGradient></defs></svg>
